!! 00000] TT[00
!! NN
!!!OTL: Jia nai
!!!ARE: Xinjiang, Yili (Nord)
!! Ethnic Group: Weiwuer
!! IV, 422
!!!SCT: C0042B
!!!YEM: Copyright 1995, estate of Helmut Schaffrath.
**kern
*ICvox
*Ivox
!! Mixed meters:  2/4; 3/4
*M3/4
*k[f#]
*G:
{16d
8d
8d
=1
8.d
16a
32g
32a
16g
8f#
=2
4e}
{8.a
16b
=3
8.a
16b
8.a
16a
=4
4a
4dd}
=5
{4b
16dd
16gg
16ee
16gg
=6
4dd
8gg
8ee
=7
8.ee
16gg
8ee
8dd
=8
8dd
8b
16dd
16gg
16ee
16gg}
=9
{16ee
16gg
8dd
16b
16dd
8b
=10
[2d
=11
2d_
=12
8.d]
16r
2r}
=13
*M2/4
{8.dd
16dd
16dd
16gg
16ee
16ee
=14
16ee
16gg
16ee
16dd}
{4b
=15
8.a
16b
16a
16dd
16b
16dd
=16
8a
8a
8.dd
16b
=17
8.a
16b
16g
16b
8a}
=18
{8.e
16g
8e
8g
=19
4e
8.g
16e
=20
8.d
16g
8e
8g
=21
4e}
{16a
16b
8a
=22
8.e
16g
16d
16g
8e
=23
[2d
=24
2d_
=25
2d]}
=26
{[4d
16d]
8B
16d
=27
8.e
16f#
16e
16a
16f#
16a
=28
4e}
{8a
8f#
=29
[2e
=30
2e_
=31
8e]
4.r}
=32
{4r
8.a
16a
=33
8.b
16dd
8b
8dd
=34
8.b
16gg
16ee
16gg
16ee
16dd
=35
8.dd
16ee
4dd}
=36
{4g
16e
16dd
8b
=37
8a
8a
16g
8e
16g
=38
4e}
{4a
=39
8.e
16g
4e
=40
[2d
=41
2d_
=42
2d_
=43
8d]
4.r}
==
!!!AGN: Aiqing gequ
!! +++richtige Bandangabe??+++
!!    typisch. Ungenaue Notation, weil die Stimmung sich von der der Han
!!    unterscheidet. Diese Bemerkung gilt fuer alle Volkslieder der Weiwuer
!!    Man hat dort eine eigene Notation.
!!    +++Das Lied wurde GETEILT!!! Der erste Teil ist im vorherigen Dokument
!!    unter gleicher Signatur kodiert.
!!    Wenig Verzierungen, Glissandi. Die 1 in T.2 wird ” gesungen.
!!    Vor- und Zwischenspiele weggelassen.
!!!ONB: ESAC (Essen Associative Code) Database: CHINA
!!!AMT: irregular
!!!AIN: vox
!!!EED: Helmut Schaffrath
!!!EEV: 1.0
*-
!!!ONB: Tied note syntax fixed by Craig Sapp, 2004/05/03/
